;FLAVOR:Marlin
;TIME:1770
;Filament used: 0.730867m
;Layer height: 0.2
;MINX:66.33
;MINY:97.399
;MINZ:0.2
;MAXX:139.308
;MAXY:121.236
;MAXZ:55
;Generated with Cura_SteamEngine 4.13.1
M140 S60
M105
M190 S60
M104 S200
M105
M109 S200
M82 ;absolute extrusion mode
; Ender 3 Custom Start G-code
G92 E0 ; Reset Extruder
G28 ; Home all axes
G1 Z2.0 F3000 ; Move Z Axis up little to prevent scratching of Heat Bed
G1 X0.1 Y20 Z0.3 F5000.0 ; Move to start position
G1 X0.1 Y200.0 Z0.3 F1500.0 E15 ; Draw the first line
G1 X0.4 Y200.0 Z0.3 F5000.0 ; Move to side a little
G1 X0.4 Y20 Z0.3 F1500.0 E30 ; Draw the second line
G92 E0 ; Reset Extruder
G1 Z2.0 F3000 ; Move Z Axis up little to prevent scratching of Heat Bed
G1 X5 Y20 Z0.3 F5000.0 ; Move over to prevent blob squish
G92 E0
G92 E0
G1 F1500 E-6.5
;LAYER_COUNT:275
;LAYER:0
M107
G0 F6000 X70.93 Y100.648 Z0.2
;TYPE:SKIRT
G1 F1500 E0
G1 F1200 X71.72 Y100.111 E0.03177
G1 X72.552 Y99.642 E0.06354
G1 X73.42 Y99.245 E0.09528
G1 X74.285 Y98.932 E0.12588
G1 X74.427 Y98.887 E0.13083
G1 X74.966 Y98.73 E0.14951
G1 X75.353 Y98.628 E0.16282
G1 X75.847 Y98.51 E0.17971
G1 X77.215 Y98.214 E0.22626
G1 X77.652 Y98.128 E0.24108
G1 X78.066 Y98.057 E0.25505
G1 X78.475 Y97.991 E0.26883
G1 X79.268 Y97.874 E0.29549
G1 X79.791 Y97.806 E0.31303
G1 X80.21 Y97.755 E0.32707
G1 X80.507 Y97.722 E0.33701
G1 X82.123 Y97.567 E0.391
G1 X83.391 Y97.466 E0.43331
G1 X83.63 Y97.449 E0.44128
G1 X84.228 Y97.414 E0.4612
G1 X85.183 Y97.399 E0.49297
G1 X86.135 Y97.463 E0.5247
G1 X87.079 Y97.606 E0.55646
G1 X88.008 Y97.828 E0.58823
G1 X88.914 Y98.127 E0.61996
G1 X89.793 Y98.501 E0.65173
G1 X90.637 Y98.947 E0.68348
G1 X91.441 Y99.462 E0.71524
G1 X92.199 Y100.043 E0.747
G1 X92.906 Y100.685 E0.77877
G1 X93.556 Y101.384 E0.81052
G1 X94.146 Y102.135 E0.84228
G1 X94.671 Y102.932 E0.87402
G1 X95.127 Y103.771 E0.90578
G1 X95.512 Y104.645 E0.93755
G1 X95.822 Y105.548 E0.9693
G1 X96.055 Y106.474 E1.00106
G1 X96.21 Y107.416 E1.03281
G1 X96.286 Y108.368 E1.06458
G1 X96.282 Y109.322 E1.09631
G1 X96.198 Y110.273 E1.12806
G1 X96.034 Y111.214 E1.15983
G1 X95.793 Y112.138 E1.19159
G1 X95.475 Y113.038 E1.22334
G1 X95.083 Y113.909 E1.25511
G1 X94.619 Y114.743 E1.28685
G1 X94.087 Y115.536 E1.31861
G1 X93.491 Y116.282 E1.35037
G1 X92.834 Y116.975 E1.38213
G1 X92.122 Y117.611 E1.41388
G1 X91.359 Y118.185 E1.44564
G1 X90.55 Y118.693 E1.47741
G1 X89.702 Y119.131 E1.50916
G1 X88.821 Y119.497 E1.54089
G1 X87.911 Y119.788 E1.57267
G1 X87.435 Y119.908 E1.58899
G1 X86.462 Y120.13 E1.62219
G1 X84.747 Y120.497 E1.68052
G1 X83.84 Y120.678 E1.71128
G1 X82.579 Y120.857 E1.75364
G1 X81.544 Y120.945 E1.78819
G1 X81.314 Y120.962 E1.79586
G1 X80.278 Y121.064 E1.83049
G1 X80.092 Y121.075 E1.83668
G1 X78.804 Y121.19 E1.87969
G1 X77.85 Y121.236 E1.91146
G1 X76.896 Y121.201 E1.94321
G1 X75.948 Y121.087 E1.97497
G1 X75.013 Y120.894 E2.00672
G1 X74.098 Y120.623 E2.03846
G1 X73.208 Y120.276 E2.07023
G1 X72.35 Y119.857 E2.10199
G1 X71.579 Y119.398 E2.13184
G1 X71.522 Y119.361 E2.1341
G1 X70.744 Y118.808 E2.16584
G1 X70.014 Y118.192 E2.19761
G1 X69.339 Y117.517 E2.22936
G1 X68.723 Y116.788 E2.26111
G1 X68.169 Y116.01 E2.29287
G1 X67.683 Y115.188 E2.32463
G1 X67.267 Y114.329 E2.35638
G1 X66.925 Y113.437 E2.38815
G1 X66.659 Y112.52 E2.41991
G1 X66.47 Y111.584 E2.45167
G1 X66.36 Y110.636 E2.48341
G1 X66.33 Y109.682 E2.51516
G1 X66.379 Y108.728 E2.54693
G1 X66.509 Y107.782 E2.57869
G1 X66.717 Y106.85 E2.61045
G1 X67.002 Y105.939 E2.6422
G1 X67.363 Y105.055 E2.67396
G1 X67.796 Y104.204 E2.70571
G1 X68.299 Y103.393 E2.73746
G1 X68.868 Y102.626 E2.76922
G1 X69.5 Y101.91 E2.80098
G1 X70.189 Y101.249 E2.83274
G1 X70.93 Y100.648 E2.86447
G0 F6000 X71.48 Y100.747
G1 F1200 X72.273 Y100.247 E2.89565
G1 X73.107 Y99.817 E2.92686
G1 X74.406 Y99.313 E2.97321
G1 X74.548 Y99.268 E2.97816
G1 X75.068 Y99.117 E2.99617
G1 X75.455 Y99.015 E3.00948
G1 X75.932 Y98.901 E3.02579
G1 X77.3 Y98.605 E3.07235
G1 X77.722 Y98.522 E3.08665
G1 X78.13 Y98.451 E3.10042
G1 X78.539 Y98.385 E3.1142
G1 X79.321 Y98.271 E3.14049
G1 X79.84 Y98.203 E3.1579
G1 X80.254 Y98.152 E3.17177
G1 X80.551 Y98.119 E3.18171
G1 X82.155 Y97.966 E3.2353
G1 X83.423 Y97.865 E3.27761
G1 X83.653 Y97.849 E3.28528
G1 X84.251 Y97.814 E3.3052
G1 X85.189 Y97.799 E3.3364
G1 X86.125 Y97.864 E3.36761
G1 X87.051 Y98.009 E3.39878
G1 X87.962 Y98.232 E3.42998
G1 X88.851 Y98.531 E3.46117
G1 X89.711 Y98.906 E3.49238
G1 X90.536 Y99.352 E3.52357
G1 X91.32 Y99.867 E3.55477
G1 X92.057 Y100.447 E3.58596
G1 X92.742 Y101.087 E3.61714
G1 X93.37 Y101.784 E3.64835
G1 X93.936 Y102.531 E3.67952
G1 X94.437 Y103.324 E3.71072
G1 X94.868 Y104.157 E3.74191
G1 X95.227 Y105.024 E3.77312
G1 X95.511 Y105.918 E3.80432
G1 X95.717 Y106.832 E3.83548
G1 X95.845 Y107.761 E3.86667
G1 X95.894 Y108.698 E3.89788
G1 X95.862 Y109.635 E3.92906
G1 X95.75 Y110.567 E3.96029
G1 X95.56 Y111.485 E3.99147
G1 X95.292 Y112.384 E4.02267
G1 X94.949 Y113.256 E4.05383
G1 X94.532 Y114.097 E4.08505
G1 X94.045 Y114.898 E4.11623
G1 X93.492 Y115.656 E4.14744
G1 X92.877 Y116.363 E4.17861
G1 X92.203 Y117.016 E4.20982
G1 X91.476 Y117.609 E4.24102
G1 X90.701 Y118.137 E4.27221
G1 X89.884 Y118.598 E4.30342
G1 X89.031 Y118.987 E4.3346
G1 X88.148 Y119.303 E4.36579
G1 X87.345 Y119.518 E4.39344
G1 X86.378 Y119.738 E4.42642
G1 X84.51 Y120.137 E4.48995
G1 X83.762 Y120.286 E4.51532
G1 X82.545 Y120.458 E4.5562
G1 X81.51 Y120.546 E4.59075
G1 X81.281 Y120.563 E4.59839
G1 X80.239 Y120.666 E4.63321
G1 X80.067 Y120.676 E4.63894
G1 X78.768 Y120.792 E4.68232
G1 X77.831 Y120.836 E4.71352
G1 X76.894 Y120.8 E4.74471
G1 X75.964 Y120.684 E4.77588
G1 X75.046 Y120.489 E4.80709
G1 X74.149 Y120.217 E4.83827
G1 X73.277 Y119.87 E4.86948
G1 X72.439 Y119.449 E4.90068
G1 X71.797 Y119.063 E4.92559
G1 X71.74 Y119.026 E4.92785
G1 X70.976 Y118.482 E4.95905
G1 X70.261 Y117.875 E4.99024
G1 X69.6 Y117.209 E5.02145
G1 X68.998 Y116.49 E5.05264
G1 X68.46 Y115.722 E5.08383
G1 X67.989 Y114.911 E5.11502
G1 X67.589 Y114.063 E5.14621
G1 X67.263 Y113.183 E5.17742
G1 X67.012 Y112.28 E5.20859
G1 X66.84 Y111.358 E5.23979
G1 X66.747 Y110.424 E5.271
G1 X66.733 Y109.487 E5.30217
G1 X66.8 Y108.551 E5.33338
G1 X66.946 Y107.625 E5.36456
G1 X67.17 Y106.714 E5.39577
G1 X67.472 Y105.826 E5.42696
G1 X67.847 Y104.967 E5.45814
G1 X68.295 Y104.142 E5.48936
G1 X68.811 Y103.359 E5.52055
G1 X69.392 Y102.623 E5.55174
G1 X70.034 Y101.939 E5.58294
G1 X70.731 Y101.312 E5.61412
G1 X71.48 Y100.747 E5.64532
G0 F6000 X71.277 Y101.389
G1 F1200 X72.031 Y100.861 E5.67594
G1 X72.828 Y100.4 E5.70656
G1 X73.662 Y100.01 E5.73719
G1 X74.527 Y99.694 E5.76782
G1 X74.669 Y99.649 E5.77277
G1 X75.169 Y99.504 E5.79008
G1 X75.556 Y99.402 E5.8034
G1 X76.016 Y99.292 E5.81913
G1 X77.384 Y98.996 E5.86568
G1 X77.791 Y98.916 E5.87948
G1 X78.193 Y98.846 E5.89305
G1 X78.602 Y98.78 E5.90683
G1 X79.373 Y98.667 E5.93274
G1 X79.888 Y98.6 E5.95002
G1 X80.298 Y98.55 E5.96376
G1 X80.595 Y98.517 E5.97369
G1 X82.186 Y98.364 E6.02686
G1 X83.454 Y98.263 E6.06916
G1 X83.677 Y98.248 E6.0766
G1 X84.275 Y98.213 E6.09652
G1 X85.195 Y98.199 E6.12712
G1 X86.113 Y98.265 E6.15773
G1 X87.023 Y98.411 E6.18839
G1 X87.916 Y98.635 E6.21901
G1 X88.786 Y98.935 E6.24962
G1 X89.627 Y99.31 E6.28025
G1 X90.432 Y99.757 E6.31087
G1 X91.195 Y100.271 E6.34147
G1 X91.911 Y100.85 E6.3721
G1 X92.574 Y101.489 E6.40272
G1 X93.179 Y102.183 E6.43334
G1 X93.721 Y102.927 E6.46396
G1 X94.197 Y103.715 E6.49458
G1 X94.603 Y104.541 E6.52519
G1 X94.936 Y105.4 E6.55583
G1 X95.192 Y106.284 E6.58644
G1 X95.371 Y107.187 E6.61706
G1 X95.471 Y108.102 E6.64768
G1 X95.492 Y109.023 E6.67832
G1 X95.432 Y109.941 E6.70891
G1 X95.293 Y110.852 E6.73956
G1 X95.075 Y111.746 E6.77017
G1 X94.78 Y112.618 E6.80079
G1 X94.411 Y113.462 E6.83143
G1 X93.971 Y114.27 E6.86203
G1 X93.461 Y115.037 E6.89266
G1 X92.887 Y115.757 E6.92329
G1 X92.253 Y116.424 E6.95389
G1 X91.563 Y117.034 E6.98453
G1 X90.823 Y117.582 E7.01515
G1 X90.038 Y118.063 E7.04577
G1 X89.215 Y118.474 E7.07637
G1 X88.359 Y118.813 E7.10699
G1 X87.256 Y119.128 E7.14514
G1 X86.294 Y119.347 E7.17796
G1 X84.432 Y119.745 E7.24129
G1 X83.684 Y119.894 E7.26666
G1 X82.511 Y120.06 E7.30606
G1 X81.476 Y120.148 E7.34061
G1 X81.246 Y120.165 E7.34828
G1 X80.2 Y120.268 E7.38324
G1 X80.041 Y120.277 E7.38853
G1 X78.732 Y120.394 E7.43224
G1 X77.813 Y120.436 E7.46284
G1 X76.893 Y120.398 E7.49347
G1 X75.98 Y120.281 E7.52408
G1 X75.08 Y120.085 E7.55472
G1 X74.201 Y119.811 E7.58534
G1 X73.349 Y119.463 E7.61595
G1 X72.531 Y119.041 E7.64657
G1 X72.015 Y118.727 E7.66666
G1 X71.958 Y118.69 E7.66892
G1 X71.208 Y118.156 E7.69954
G1 X70.507 Y117.558 E7.73018
G1 X69.861 Y116.902 E7.76081
G1 X69.275 Y116.193 E7.7914
G1 X68.752 Y115.435 E7.82203
G1 X68.296 Y114.635 E7.85266
G1 X67.912 Y113.798 E7.88329
G1 X67.602 Y112.931 E7.91391
G1 X67.369 Y112.041 E7.94451
G1 X67.213 Y111.133 E7.97515
G1 X67.137 Y110.216 E8.00576
G1 X67.141 Y109.295 E8.03639
G1 X67.225 Y108.378 E8.06702
G1 X67.388 Y107.472 E8.09763
G1 X67.628 Y106.584 E8.12823
G1 X67.945 Y105.719 E8.15887
G1 X68.336 Y104.886 E8.18948
G1 X68.798 Y104.089 E8.22012
G1 X69.327 Y103.336 E8.25072
G1 X69.92 Y102.631 E8.28136
G1 X70.571 Y101.981 E8.31196
G1 X71.277 Y101.389 E8.34261
G0 F6000 X71.825 Y101.482
G1 F1200 X72.584 Y100.992 E8.37265
G1 X73.383 Y100.571 E8.40269
G1 X74.216 Y100.223 E8.43272
G1 X74.648 Y100.076 E8.4479
G1 X74.79 Y100.031 E8.45285
G1 X75.271 Y99.891 E8.46951
G1 X75.658 Y99.789 E8.48282
G1 X76.101 Y99.683 E8.49797
G1 X77.469 Y99.387 E8.54453
G1 X77.86 Y99.31 E8.55778
G1 X78.257 Y99.241 E8.57118
G1 X78.666 Y99.175 E8.58496
G1 X79.425 Y99.064 E8.61048
G1 X79.937 Y98.997 E8.62765
G1 X80.343 Y98.947 E8.64126
G1 X80.64 Y98.914 E8.65119
G1 X82.218 Y98.763 E8.70392
G1 X83.486 Y98.662 E8.74623
G1 X83.7 Y98.647 E8.75336
G1 X84.298 Y98.612 E8.77328
G1 X85.201 Y98.6 E8.80332
G1 X86.102 Y98.667 E8.83337
G1 X86.993 Y98.813 E8.8634
G1 X87.867 Y99.038 E8.89342
G1 X88.719 Y99.339 E8.92347
G1 X89.54 Y99.715 E8.95351
G1 X90.325 Y100.161 E8.98354
G1 X91.068 Y100.675 E9.01358
G1 X91.762 Y101.253 E9.04362
G1 X92.402 Y101.89 E9.07366
G1 X92.983 Y102.582 E9.10371
G1 X93.501 Y103.321 E9.13373
G1 X93.951 Y104.104 E9.16376
G1 X94.331 Y104.924 E9.19382
G1 X94.636 Y105.774 E9.22386
G1 X94.865 Y106.647 E9.25388
G1 X95.016 Y107.538 E9.28394
G1 X95.088 Y108.438 E9.31396
G1 X95.079 Y109.341 E9.344
G1 X94.991 Y110.24 E9.37404
G1 X94.824 Y111.127 E9.40406
G1 X94.579 Y111.996 E9.43409
G1 X94.257 Y112.84 E9.46414
G1 X93.863 Y113.653 E9.49419
G1 X93.398 Y114.427 E9.52422
G1 X92.867 Y115.157 E9.55424
G1 X92.273 Y115.837 E9.58427
G1 X91.621 Y116.463 E9.61434
G1 X90.916 Y117.027 E9.64437
G1 X90.164 Y117.528 E9.67442
G1 X89.371 Y117.96 E9.70445
G1 X88.543 Y118.32 E9.73448
G1 X87.686 Y118.605 E9.76452
G1 X87.167 Y118.738 E9.78234
G1 X86.21 Y118.956 E9.81499
G1 X84.354 Y119.352 E9.87811
G1 X83.606 Y119.501 E9.90348
G1 X82.477 Y119.661 E9.9414
G1 X81.247 Y119.764 E9.98245
G1 X80.161 Y119.87 E10.01875
G1 X79.984 Y119.88 E10.02464
G1 X78.697 Y119.995 E10.06762
G1 X77.795 Y120.036 E10.09765
G1 X76.892 Y119.997 E10.12771
G1 X75.997 Y119.878 E10.15774
G1 X75.116 Y119.68 E10.18778
G1 X74.256 Y119.406 E10.2178
G1 X73.423 Y119.056 E10.24785
G1 X72.625 Y118.634 E10.27787
G1 X72.175 Y118.355 E10.29548
G1 X71.44 Y117.83 E10.32553
G1 X70.755 Y117.242 E10.35555
G1 X70.124 Y116.596 E10.38559
G1 X69.552 Y115.897 E10.41563
G1 X69.045 Y115.149 E10.44568
G1 X68.606 Y114.36 E10.47571
G1 X68.238 Y113.536 E10.50573
G1 X67.945 Y112.681 E10.53579
G1 X67.728 Y111.805 E10.56581
G1 X67.59 Y110.912 E10.59586
G1 X67.531 Y110.011 E10.62589
G1 X67.552 Y109.108 E10.65593
G1 X67.653 Y108.211 E10.68596
G1 X67.833 Y107.326 E10.71599
G1 X68.091 Y106.46 E10.74605
G1 X68.424 Y105.621 E10.77607
G1 X68.83 Y104.814 E10.80612
G1 X69.306 Y104.046 E10.83617
G1 X69.848 Y103.324 E10.8662
G1 X70.451 Y102.652 E10.89623
G1 X71.112 Y102.036 E10.92628
G1 X71.825 Y101.482 E10.95631
G1 F1500 E4.45631
;MESH:propel1 v2.stl
G0 F6000 X80.11 Y108.598
G0 X80.363 Y109.249
G0 X81.959 Y109.23
;TYPE:WALL-OUTER
G1 F1500 E10.95631
G1 F1200 X81.587 Y109.309 E10.96896
G1 X81.371 Y109.297 E10.97615
G1 X81.84 Y109.242 E10.99186
G1 X81.959 Y109.23 E10.99584
G0 F6000 X81.958 Y109.431
;MESH:NONMESH
G0 F300 X81.958 Y109.431 Z0.4
G0 F6000 X82.434 Y109.219
;TIME_ELAPSED:22.397967
;LAYER:1
M106 S85
;TYPE:WALL-OUTER
;MESH:propel1 v2.stl
G1 F600 X81.851 Y109.343 E11.01566
G1 X81.522 Y109.326 E11.02662
G1 X82.242 Y109.239 E11.05074
G1 X82.434 Y109.219 E11.05716
G0 F7500 X82.372 Y109.028
;MESH:NONMESH
G0 F300 X82.372 Y109.028 Z0.6
G0 F7500 X81.676 Y109.356
;TIME_ELAPSED:22.748932
;LAYER:2
M106 S170
;TYPE:WALL-OUTER
;MESH:propel1 v2.stl
G1 F600 X82.092 Y109.301 E11.07112
G1 X82.642 Y109.236 E11.08954
G1 X82.92 Y109.207 E11.09883
G1 X82.116 Y109.378 E11.12617
G1 X81.676 Y109.356 E11.14083
G0 F9000 X81.717 Y109.158
;MESH:NONMESH
G0 F300 X81.717 Y109.158 Z0.8
G0 F9000 X81.821 Y109.389
;TIME_ELAPSED:23.135392
;LAYER:3
M106 S255
;TYPE:WALL-OUTER
;MESH:propel1 v2.stl
G1 F600 X82.477 Y109.3 E11.16285
G1 X83.391 Y109.196 E11.19344
G1 X82.381 Y109.413 E11.2278
G1 X81.931 Y109.39 E11.24279
G1 X81.821 Y109.389 E11.24645
G0 F9000 X81.88 Y109.582
G1 F1500 E4.74645
G0 F9000 X81.881 Y109.49
G0 X86.52 Y108.734
G0 X87.201 Y108.637
G0 X135.792 Y109.032
G0 X135.964 Y109.694
G0 X138.446 Y109.373
G1 F1500 E11.24645
G1 F600 X138.549 Y109.355 E11.24992
G1 X138.904 Y109.3 E11.26187
G1 X139.308 Y109.248 E11.27542
G1 X139.17 Y109.288 E11.2802
G1 X138.446 Y109.373 E11.30444
G0 F9000 X138.483 Y109.569
;MESH:NONMESH
G0 F300 X138.483 Y109.569 Z1
G0 F9000 X138.473 Y109.47
G0 X136.935 Y109.59
;TIME_ELAPSED:25.287145
;LAYER:4
;TYPE:WALL-OUTER
;MESH:propel1 v2.stl
G1 F600 X137.203 Y109.536 E11.31354
G1 X137.659 Y109.45 E11.32897
G1 X138.132 Y109.37 E11.34493
G1 X138.59 Y109.299 E11.36034
G1 X139.045 Y109.241 E11.3756
G1 X138.698 Y109.34 E11.3876
G1 X137.981 Y109.427 E11.41162
G1 X137.278 Y109.529 E11.43525
G1 X136.935 Y109.59 E11.44684
G1 F1500 E4.94684
G0 F9000 X133.814 Y110.376
G1 F1500 E11.44684
G1 F600 X133.809 Y110.374 E11.44702
G1 X133.952 Y110.333 E11.45196
G1 X133.814 Y110.376 E11.45677
G0 F9000 X133.865 Y110.567
G1 F1500 E4.95677
G0 F9000 X133.838 Y110.474
G0 X133.174 Y110.357
G0 X132.488 Y110.34
G0 X87.699 Y108.621
G0 X87.024 Y108.717
G0 X83.888 Y109.182
G1 F1500 E11.45677
G1 F600 X82.646 Y109.447 E11.49901
G1 X82.2 Y109.425 E11.51386
G1 X81.971 Y109.422 E11.52148
G1 X82.325 Y109.37 E11.53338
G1 X82.942 Y109.291 E11.55407
G1 X83.446 Y109.23 E11.57095
G1 X83.888 Y109.182 E11.58574
G0 F9000 X83.826 Y108.992
G1 F1500 E5.08574
;MESH:NONMESH
G0 F300 X83.826 Y108.992 Z1.2
G0 F9000 X83.834 Y109.087
G0 X87.024 Y108.717
G0 X87.699 Y108.621
G0 X132.488 Y110.34
G0 X133.174 Y110.357
G0 X135.723 Y109.788
;TIME_ELAPSED:29.204478
;LAYER:5
;TYPE:WALL-OUTER
;MESH:propel1 v2.stl
G1 F1500 E11.58574
G1 F600 X136.326 Y109.649 E11.60632
G1 X136.83 Y109.546 E11.62343
G1 X137.364 Y109.448 E11.64149
G1 X137.807 Y109.371 E11.65645
G1 X138.278 Y109.3 E11.67229
G1 X138.79 Y109.232 E11.68947
G1 X138.226 Y109.394 E11.70898
G1 X137.518 Y109.48 E11.7327
G1 X136.896 Y109.569 E11.7536
G1 X136.152 Y109.699 E11.77872
G1 X135.723 Y109.788 E11.7933
G0 F9000 X135.225 Y109.903
G1 F600 X135.239 Y109.899 E11.79378
G1 X135.253 Y109.896 E11.79426
G1 X135.225 Y109.903 E11.79522
G0 F9000 X134.212 Y110.165
G1 F600 X133.399 Y110.42 E11.82356
G1 X133.362 Y110.407 E11.82486
G1 X134.051 Y110.207 E11.84872
G1 X134.212 Y110.165 E11.85426
G0 F9000 X134.143 Y109.979
G1 F1500 E5.35426
G0 F9000 X134.166 Y110.074
G0 X132.729 Y110.388
G0 X132.044 Y110.369
G0 X88.199 Y108.604
G0 X87.523 Y108.701
G0 X84.38 Y109.168
G1 F1500 E11.85426
G1 F600 X82.911 Y109.482 E11.90422
G1 X82.469 Y109.46 E11.91894
G1 X82.119 Y109.456 E11.93058
G1 X82.412 Y109.415 E11.94042
G1 X82.697 Y109.371 E11.95001
G1 X83.248 Y109.299 E11.96849
G1 X83.847 Y109.227 E11.98856
G1 X84.38 Y109.168 E12.0064
G0 F9000 X84.319 Y108.978
G1 F1500 E5.5064
;MESH:NONMESH
G0 F300 X84.319 Y108.978 Z1.4
G0 F9000 X84.327 Y109.073
G0 X87.523 Y108.701
G0 X88.199 Y108.604
G0 X132.044 Y110.369
G0 X132.729 Y110.388
G1 F1500 E12.0064
G0 F9000 X132.916 Y110.439
;TIME_ELAPSED:33.537852
;LAYER:6
